assets/ai/ai-ceur.svg

<svg xmlns="http://www.w3.org/2000/svg" width="100%" height="100%" viewBox="-43.52 -43.52 599.04 599.04"><path d="M 128.00044,383.9996 V 128.00001 h 64 V 64 H 64.000878 V 447.99913 H 256.00043 V 383.99918 Z M 383.99959,64.000453 H 256.00001 V 128.00044 H 383.99959 V 384.00005 H 319.99956 V 448 H 447.99912 V 64.000877 Z"/></svg>

<svg xmlns="http://www.w3.org/2000/svg" width="100%" height="100%" viewBox="-43.52 -43.52 599.04 599.04"><path d="M128 384V128h64V64H64v384h192v-64zM384 64H256v64h128v256h-64v64h128V64z"/></svg>
